X:45
T: O Uodem, Strefuodem, S. 11
N: L0006
O: Luxemburg
S: Die Luxemburger Volkslieder lterer Zeit, Luxemburg 1904 posth.]
R: Kinderlied]
M: 3/4
L: 1/4
K: E
=G | =GEG | =GEG | =GEe | =cz
B | BAA | A=GG | =GFB | Ez2

@@@ Tune index: 8099
